NotoEmoji/1f1e9-1f1f0.svg

<svg xmlns="http://www.w3.org/2000/svg" viewBox="0 0 36 36"><path fill="#C60C30" d="M32 5H15v11h21V9c0-2.209-1.791-4-4-4zM15 31h17c2.209 0 4-1.791 4-4.5V20H15v11zM0 20v6.5C0 29.209 1.791 31 4 31h7V20H0zM11 5H4C1.791 5 0 6.791 0 9v7h11V5z"/><path fill="#FFF" d="M15 5h-4v11H0v4h11v11h4V20h21v-4H15z"/></svg>

<svg viewBox="0 0 36 36" xmlns="http://www.w3.org/2000/svg"><path d="m32 5h-17v11h21v-7c0-2.21-1.79-4-4-4zm-17 26h17c2.21 0 4-1.79 4-4.5v-6.5h-21zm-15-11v6.5c0 2.71 1.79 4.5 4 4.5h7v-11zm11-15h-7c-2.21 0-4 1.79-4 4v7h11z" fill="#c60c30"/><path d="m15 5h-4v11h-11v4h11v11h4v-11h21v-4h-21z" fill="#fff"/></svg>
